helsinki/login/resources/img/helsinki-logo.svg

<svg xmlns="http://www.w3.org/2000/svg" width="130" height="60" viewBox="0 0 130 60">
  <g fill="#343434">
    <path d="M126.255578,3.7516397 L126.255578,38.2509838 C126.255578,44.8360297 120.79716,50.2142545 114.073022,50.2142545 L76.9716024,50.2142545 C72.515213,50.2142545 68.296146,51.8146043 65,54.7791867 C61.703854,51.8408395 57.484787,50.2142545 53.0283976,50.2142545 L15.8478702,50.2142545 C9.17647059,50.2142545 3.77079108,44.862265 3.77079108,38.2509838 L3.77079108,3.7516397 L126.255578,3.7516397 Z M66.9776876,58.058592 C69.6409736,55.4088325 73.2008114,53.9396589 76.9979716,53.9396589 L114.073022,53.9396589 C122.853955,53.9396589 130,46.9086139 130,38.2509838 L130,0 L0,0 L0,38.2247486 C0,46.8823787 7.09330629,53.9134237 15.8478702,53.9134237 L53.0283976,53.9134237 C56.7991886,53.9134237 60.3590264,55.3825973 63.0486815,58.0323568 L65.0263692,60 L66.9776876,58.058592 Z"/>
    <path d="M112.537313,19.4594962 C112.537313,20.5957775 111.610306,21.4221638 110.444926,21.4221638 C109.279545,21.4221638 108.352538,20.5957775 108.352538,19.4594962 C108.352538,18.3232149 109.279545,17.4968286 110.444926,17.4968286 C111.610306,17.4451794 112.537313,18.2715658 112.537313,19.4594962 L112.537313,19.4594962 Z M108.617397,35.4965567 L112.245968,35.4965567 L112.245968,22.9199891 L108.617397,22.9199891 L108.617397,35.4965567 Z M102.101861,27.9041319 L106.84284,35.4965567 L102.896438,35.4965567 L99.7181276,30.4607648 L97.9965428,32.5783798 L97.9965428,35.4965567 L94.3944575,35.4965567 L94.3944575,17.4193548 L97.9965428,17.4193548 L97.9965428,25.7606923 C97.9965428,27.3101667 97.8111413,28.8596412 97.8111413,28.8596412 L97.8905991,28.8596412 C97.8905991,28.8596412 98.7381485,27.4909387 99.4532684,26.5096049 L102.207804,22.9199891 L106.445552,22.9199891 L102.101861,27.9041319 Z M90.7394004,27.4392896 C90.7394004,24.3145161 89.176731,22.6100942 86.6870545,22.6100942 C84.5681808,22.6100942 83.4557721,23.8238492 82.82011,24.9859551 L82.7406522,24.9859551 L82.9260537,22.9199891 L79.3239684,22.9199891 L79.3239684,35.4965567 L82.9260537,35.4965567 L82.9260537,28.0332548 C82.9260537,26.5870787 83.8000891,25.5799203 85.150871,25.5799203 C86.501653,25.5799203 87.0843433,26.4579558 87.0843433,28.1365531 L87.0843433,35.4965567 L90.7129145,35.4965567 L90.7394004,27.4392896 L90.7394004,27.4392896 Z M75.8543127,19.4594962 C75.8543127,20.5957775 74.9273055,21.4221638 73.761925,21.4221638 C72.5965444,21.4221638 71.6695372,20.5957775 71.6695372,19.4594962 C71.6695372,18.3232149 72.5965444,17.4968286 73.761925,17.4968286 C74.9537914,17.4451794 75.8543127,18.2715658 75.8543127,19.4594962 L75.8543127,19.4594962 Z M71.9343964,35.4965567 L75.5629676,35.4965567 L75.5629676,22.9199891 L71.9343964,22.9199891 L71.9343964,35.4965567 Z M65.683719,31.9844146 C65.683719,30.9772563 64.2534793,30.7706597 62.5848663,30.3058173 C60.651394,29.8151504 58.2146893,28.8596412 58.2146893,26.4579558 C58.2146893,24.082095 60.5454503,22.5842697 63.2999861,22.5842697 C65.8691205,22.5842697 68.2263675,23.7722001 69.2063465,25.4507974 L66.1074938,27.1552193 C65.7896627,26.0447626 64.8361696,25.1667271 63.4059298,25.1667271 C62.4789226,25.1667271 61.7108309,25.5540957 61.7108309,26.3030083 C61.7108309,27.2585176 63.4059298,27.3618159 65.3129161,27.9557811 C67.3258461,28.5755709 69.1798606,29.479431 69.1798606,31.7778181 C69.1798606,34.3086263 66.7696418,35.8064516 63.9886201,35.8064516 C60.9692251,35.8064516 58.5854922,34.5668721 57.5260553,32.5525553 L60.67788,30.8223088 C61.0751688,32.1910112 62.2140634,33.2239942 63.9356482,33.2239942 C64.9685992,33.2239942 65.683719,32.810801 65.683719,31.9844146 L65.683719,31.9844146 Z M54.2153152,17.5226531 L50.586744,17.5226531 L50.586744,32.0102392 C50.586744,33.3014679 50.8780891,34.2569772 51.4342935,34.8509424 C52.0169838,35.4449076 52.9175051,35.7289779 54.1623434,35.7289779 C54.5861181,35.7289779 55.0363788,35.6773287 55.4601535,35.599855 C55.9104142,35.4965567 56.2547311,35.3674339 56.5460763,35.2124864 L56.8639073,32.8366256 C56.5725622,32.9399239 56.3341889,33.0173976 56.0958156,33.0432222 C55.8839282,33.0948713 55.619069,33.0948713 55.3277239,33.0948713 C54.8509773,33.0948713 54.6390899,32.9657485 54.4801744,32.7333273 C54.294773,32.5009061 54.2153152,32.0877129 54.2153152,31.4937477 L54.2153152,17.5226531 Z M42.1377352,25.1409025 C40.8134391,25.1409025 39.7275164,26.0705872 39.4361712,27.7750091 L44.5214681,27.7750091 C44.547954,26.2771838 43.541489,25.1409025 42.1377352,25.1409025 L42.1377352,25.1409025 Z M47.7262645,30.1508699 L39.3831994,30.1508699 C39.5421149,32.1910112 40.7074955,33.1981696 42.217193,33.1981696 C43.5679749,33.1981696 44.4949822,32.3201341 44.7068695,31.1322037 L47.7527505,32.810801 C46.8522291,34.4119246 44.9187569,35.8064516 42.217193,35.8064516 C38.6151077,35.8064516 35.9665156,33.3531171 35.9665156,29.2211852 C35.9665156,25.1150779 38.6680795,22.6359188 42.1377352,22.6359188 C45.6073909,22.6359188 47.911666,25.0376042 47.911666,28.446448 C47.8851801,29.4536064 47.7262645,30.1508699 47.7262645,30.1508699 L47.7262645,30.1508699 Z M29.2655775,35.4965567 L33.0265783,35.4965567 L33.0265783,18.1940921 L29.2655775,18.1940921 L29.2655775,25.0376042 L22.1938366,25.0376042 L22.1938366,18.2199166 L18.4328358,18.2199166 L18.4328358,35.4965567 L22.1938366,35.4965567 L22.1938366,28.3431497 L29.2655775,28.3431497 L29.2655775,35.4965567 L29.2655775,35.4965567 Z"/>
  </g>
</svg>

<?xml version="1.0" encoding="UTF-8"?>
<svg viewBox="0 0 130 60" xmlns="http://www.w3.org/2000/svg">
<g fill="#343434">
<path d="m126.26 3.7516v34.499c0 6.585-5.4584 11.963-12.183 11.963h-37.101c-4.4564 0-8.6755 1.6003-11.972 4.5649-3.2961-2.9383-7.5152-4.5649-11.972-4.5649h-37.181c-6.6714 0-12.077-5.352-12.077-11.963v-34.499h122.48zm-59.278 54.307c2.6633-2.6498 6.2231-4.1189 10.02-4.1189h37.075c8.7809 0 15.927-7.031 15.927-15.689v-38.251h-130v38.225c0 8.6576 7.0933 15.689 15.848 15.689h37.181c3.7708 0 7.3306 1.4692 10.02 4.1189l1.9777 1.9676 1.9513-1.9414z"/>
<path d="m112.54 19.459c0 1.1363-0.92701 1.9627-2.0924 1.9627-1.1654 0-2.0924-0.82639-2.0924-1.9627s0.92701-1.9627 2.0924-1.9627c1.1654-0.051649 2.0924 0.77474 2.0924 1.9627zm-3.9199 16.037h3.6286v-12.577h-3.6286v12.577zm-6.5155-7.5924 4.741 7.5924h-3.9464l-3.1783-5.0358-1.7216 2.1176v2.9182h-3.6021v-18.077h3.6021v8.3413c0 1.5495-0.1854 3.0989-0.1854 3.0989h0.079458s0.84755-1.3687 1.5627-2.35l2.7545-3.5896h4.2377l-4.3437 4.9841zm-11.362-0.46484c0-3.1248-1.5627-4.8292-4.0523-4.8292-2.1189 0-3.2313 1.2138-3.8669 2.3759h-0.079458l0.1854-2.066h-3.6021v12.577h3.6021v-7.4633c0-1.4462 0.87404-2.4533 2.2248-2.4533 1.3508 0 1.9335 0.87804 1.9335 2.5566v7.36h3.6286l0.026486-8.0573zm-14.885-7.9798c0 1.1363-0.92701 1.9627-2.0924 1.9627-1.1654 0-2.0924-0.82639-2.0924-1.9627s0.92701-1.9627 2.0924-1.9627c1.1919-0.051649 2.0924 0.77474 2.0924 1.9627zm-3.9199 16.037h3.6286v-12.577h-3.6286v12.577zm-6.2507-3.5121c0-1.0072-1.4302-1.2138-3.0989-1.6786-1.9335-0.49067-4.3702-1.4462-4.3702-3.8479 0-2.3759 2.3308-3.8737 5.0853-3.8737 2.5691 0 4.9264 1.1879 5.9064 2.8665l-3.0989 1.7044c-0.31783-1.1105-1.2713-1.9885-2.7016-1.9885-0.92701 0-1.6951 0.38737-1.6951 1.1363 0 0.95551 1.6951 1.0588 3.6021 1.6528 2.0129 0.61979 3.8669 1.5236 3.8669 3.822 0 2.5308-2.4102 4.0286-5.1912 4.0286-3.0194 0-5.4031-1.2396-6.4626-3.2539l3.1518-1.7302c0.39729 1.3687 1.5362 2.4017 3.2578 2.4017 1.033 0 1.7481-0.41319 1.7481-1.2396zm-11.468-14.462h-3.6286v14.488c0 1.2912 0.29135 2.2467 0.84755 2.8407 0.58269 0.59397 1.4832 0.87804 2.728 0.87804 0.42377 0 0.87404-0.051649 1.2978-0.12912 0.45026-0.1033 0.79458-0.23242 1.0859-0.38737l0.31783-2.3759c-0.29135 0.1033-0.52972 0.18077-0.76809 0.2066-0.21189 0.051649-0.47675 0.051649-0.76809 0.051649-0.47675 0-0.68863-0.12912-0.84755-0.36154-0.1854-0.23242-0.26486-0.64561-0.26486-1.2396v-13.971zm-12.078 7.6182c-1.3243 0-2.4102 0.92968-2.7016 2.6341h5.0853c0.026486-1.4978-0.97998-2.6341-2.3837-2.6341zm5.5885 5.01h-8.3431c0.15892 2.0401 1.3243 3.0473 2.834 3.0473 1.3508 0 2.2778-0.87804 2.4897-2.066l3.0459 1.6786c-0.90052 1.6011-2.834 2.9957-5.5356 2.9957-3.6021 0-6.2507-2.4533-6.2507-6.5853 0-4.1061 2.7016-6.5853 6.1712-6.5853s5.7739 2.4017 5.7739 5.8105c-0.026486 1.0072-0.1854 1.7044-0.1854 1.7044zm-18.461 5.3457h3.761v-17.302h-3.761v6.8435h-7.0717v-6.8177h-3.761v17.277h3.761v-7.1534h7.0717v7.1534z"/>
</g>
</svg>
